!!!OTL: Vaterlands - Lied.
!!!OTL-incipit: AUF DEM TAGE ZU FROHLOCKEN
!!!COM: G. F. Haendel
!!!ARE: Europa, Mitteleuropa, Deutschland
!!!SCT: Z1129
!!!TXL: @@DE
!!!YEM: Copyright 1995, estate of Helmut Schaffrath.
**kern	**text
*ICvox	*
*M4/4	*
*met(c)	*
*k[f#c#g#d#]	*
*E:	*
!LO:TX:a:t=Von Händel.	!
{4e	Auf,
4g#	dem
=1	=1
4f#	Ta-
4b/	-ge
4g#	ʒu
8f#L	froh-
8eJ	.
=2	=2
4f#	-lok-
4/b}	-ken,
{4g#	reiht
4cc#/	euch
=3	=3
4b/	in
4b/	des
4b/	Fe-
4a#	-ſtes
=4	=4
2b/}	Drang,
{4e	Strömet
4g#	.
=5	=5
4f#	in
4b/	den
4g#	Klang
8f#L	der
8eJ	.
=6	=6
4f#	Glocken
4b/}	.
{4g#	Ju-
4cc#/	-bel-
=7	=7
4b/	-ruf
4b/	und
4b/	Hoch-
4a#	-ge-
=8	=8
2b/}	-ſang!
{4b/	Rings
8ee/L	er-
8bJ	.
=9	=9
4cc#/	-tö-
4b/	-nen
8g#L	al-
8bJ	.
8ee/L	-le
8bJ	.
=10	=10
4cc#/	Ʒun-
4b/}	-gen,
{8g#L	je-
8bJ	.
8ee/L	-des
8dd#J	.
=11	=11
8dd#/L	Herʒ
8cc#J	.
8cc#/L	er-
8bJ	.
8b/L	-greift
8aJ	.
8g#L	der
16a	.
16bJ	.
=12	=12
2f#}	Brand,
{4b/	je-
4e	-dem
=13	=13
4f#	Bu-
4e	-ſen
8b/L	ſey's
8g#J	.
8f#L	ent-
8eJ	.
=14	=14
8f#L	-ſun-
8d#J	.
4e}	-gen,
{4b/	Heil
8eL	dem
8f#J	.
=15	=15
8d#L	deut-
8aJ	.
8g#L	-ſchen
8f#J	.
4g#L	Va-
8f#J	-ter-
8e	.
=16	=16
2e}	-land!
==	==
!!!AGN: Vaterland und Wehr
!!!ONB: ESAC (Essen Associative Code) Database: ZUCCAL
!!!AMT: simple quadruple
!!!AIN: vox
!!!EED: Helmut Schaffrath
!!!EEV: 1.0
!!!GTL: IV. Vaterland und Wehr.
!!!URL-scan: https://www.digitale-sammlungen.de/de/view/bsb11160573?page=285
!!!ENC: Anna Maria Matuszewska
!!!EEV: 2025/02/04
*-	*-
